assets/images/services/value-4.svg

<?xml version="1.0" encoding="UTF-8" standalone="no"?>
<svg width="45px" height="50px" viewBox="0 0 45 50" version="1.1" xmlns="http://www.w3.org/2000/svg" xmlns:xlink="http://www.w3.org/1999/xlink">
    <!-- Generator: sketchtool 46 (44423) - http://www.bohemiancoding.com/sketch -->
    <title>17816F22-A6BA-4853-87EA-EF26173806C1</title>
    <desc>Created with sketchtool.</desc>
    <defs>
        <polygon id="path-1" points="6.79758308e-05 7.74433499e-15 30.9721113 7.74433499e-15 30.9721113 28.8904223 6.79758308e-05 28.8904223 6.79758308e-05 0"></polygon>
        <polygon id="path-3" points="0 50 45 50 45 0 0 0"></polygon>
    </defs>
    <g id="02-Quienes-somos" stroke="none" stroke-width="1" fill="none" fill-rule="evenodd">
        <g id="2.3-Valores" transform="translate(-678.000000, -783.000000)">
            <g id="Servicio" transform="translate(678.000000, 783.000000)">
                <g id="Page-1">
                    <path d="M27.8613218,25.9938556 C37.316352,27.8743733 44.3201737,34.6757357 44.3201737,42.7792779 C44.3201737,45.231594 34.5814124,49.3187875 22.5679079,49.3187875 C10.5545393,49.3187875 0.815641994,45.7765531 0.815641994,42.7792779 C0.815641994,34.7039373 7.770929,27.9211035 17.176065,26.0130654 C13.4741012,24.0830926 10.9440408,20.2065259 10.9440408,15.7356812 C10.9440408,9.34004087 16.1178172,4.15529973 22.499932,4.15529973 C28.8821828,4.15529973 34.0558233,9.34004087 34.0558233,15.7356812 C34.0558233,20.1916757 31.5430287,24.0573433 27.8613218,25.9938556 Z" id="Fill-1" fill="#00758D" opacity="0.357276119"></path>
                    <path d="M22.4320242,4.5640327 C16.3974018,4.5640327 11.4879154,9.48392371 11.4879154,15.5313351 C11.4879154,21.5787466 16.3974018,26.4986376 22.4320242,26.4986376 C28.4666465,26.4986376 33.3761329,21.5787466 33.3761329,15.5313351 C33.3761329,9.48392371 28.4666465,4.5640327 22.4320242,4.5640327 M22.4320242,27.7247956 C15.7226737,27.7247956 10.2643505,22.2549046 10.2643505,15.5313351 C10.2643505,8.80776567 15.7226737,3.33787466 22.4320242,3.33787466 C29.1413746,3.33787466 34.5996979,8.80776567 34.5996979,15.5313351 C34.5996979,22.2549046 29.1413746,27.7247956 22.4320242,27.7247956" id="Fill-3" fill="#00758D"></path>
                    <g id="Group-7" transform="translate(6.933535, 0.000000)">
                        <mask id="mask-2" fill="white">
                            <use xlink:href="#path-1"></use>
                        </mask>
                        <g id="Clip-6"></g>
                        <path d="M7.75787764,28.8904223 C7.64925227,28.8904223 7.53940332,28.8614033 7.43988671,28.8006403 C2.78136707,25.9535014 6.79758308e-05,20.9931471 6.79758308e-05,15.5312943 C6.79758308e-05,6.96739782 6.95263595,-4.08719346e-05 15.4985574,-4.08719346e-05 C23.7044637,-4.08719346e-05 30.5008233,6.42489101 30.9710801,14.6267984 C30.9905211,14.964673 30.7327568,15.254455 30.3954607,15.2739373 C30.0574849,15.2951907 29.7688595,15.035109 29.7496903,14.6969619 C29.3164124,7.14328338 23.0565181,1.22611717 15.4985574,1.22611717 C7.6272281,1.22611717 1.22363293,7.64341962 1.22363293,15.5312943 C1.22363293,20.5620845 3.78550604,25.131158 8.07695619,27.7537738 C8.36544562,27.9300681 8.45666918,28.3073161 8.28074773,28.5964169 C8.16546073,28.7857902 7.96411631,28.8904223 7.75787764,28.8904223" id="Fill-5" fill="#00758D" mask="url(#mask-2)"></path>
                    </g>
                    <path d="M8.06549547,20.683297 L8.06549547,20.683297 C7.09167372,20.7510082 6.2474139,20.0150409 6.17984592,19.0392916 L5.91582779,15.2337057 C5.84812387,14.2578202 6.58267069,13.4119074 7.55649245,13.3440599 C8.53017825,13.2762125 9.37443807,14.0121798 9.44214199,14.9880654 L9.70602417,18.7936512 C9.77359215,19.7694005 9.03918127,20.6154496 8.06549547,20.683297" id="Fill-8" fill="#00758D"></path>
                    <path d="M37.1148036,21.253406 L37.1148036,21.253406 C36.1386707,21.253406 35.347432,20.4604905 35.347432,19.4822888 L35.347432,14.8501362 C35.347432,13.8719346 36.1386707,13.0790191 37.1148036,13.0790191 C38.0909366,13.0790191 38.8821752,13.8719346 38.8821752,14.8501362 L38.8821752,19.4822888 C38.8821752,20.4604905 38.0909366,21.253406 37.1148036,21.253406" id="Fill-10" fill="#00758D"></path>
                    <path d="M16.4501511,27.9291553 C16.4501511,27.0262943 15.7196828,26.2942779 14.8187311,26.2942779 C13.9177795,26.2942779 13.1873112,27.0262943 13.1873112,27.9291553 C13.1873112,28.8320163 13.9177795,29.5640327 14.8187311,29.5640327 C15.7196828,29.5640327 16.4501511,28.8320163 16.4501511,27.9291553" id="Fill-12" fill="#00758D"></path>
                    <path d="M22.5,50 C15.2279456,50 8.07797583,48.4645777 1.82311178,45.5599455 C0.717009063,45.0464578 0.00149546828,43.9348774 0,42.7284741 L0,42.7111717 C0,36.7365123 3.80528701,31.2153951 10.1791088,27.9420981 C10.4799698,27.7874659 10.8485347,27.906812 11.0027039,28.2080381 C11.1567372,28.5094005 11.0377795,28.8788828 10.7373263,29.0332425 C4.78006042,32.0926431 1.22356495,37.2058583 1.22356495,42.7111717 L1.22356495,42.7276567 C1.22451662,43.4581744 1.66173716,44.133515 2.33741692,44.4474114 C8.43226586,47.2777929 15.4045468,48.773842 22.5,48.773842 C29.5954532,48.773842 36.5677341,47.2777929 42.6625831,44.4474114 C43.3382628,44.133515 43.7754834,43.4581744 43.776435,42.7268392 L43.776435,42.7111717 C43.776435,39.3519074 42.4670846,36.1207084 39.9899094,33.3673025 C37.5429154,30.6474114 34.1446677,28.5814714 30.1627795,27.3929155 C29.8389426,27.2963215 29.6545921,26.9550409 29.7511178,26.6305177 C29.8473716,26.3057221 30.1882024,26.1209809 30.5120393,26.2178474 C34.7095468,27.4707084 38.3012538,29.6589918 40.8987462,32.5463215 C43.5817523,35.5286104 45,39.0435967 45,42.7111717 L45,42.7276567 C44.9985045,43.9348774 44.2829909,45.0464578 43.1768882,45.5599455 C36.9220242,48.4645777 29.7720544,50 22.5,50" id="Fill-14" fill="#00758D"></path>
                    <path d="M22.3635181,32.4250681 C22.2411616,32.4250681 22.1174456,32.3882834 22.0099079,32.3119891 L17.7954063,29.3147139 C17.5199683,29.1186649 17.4551193,28.7361035 17.6506178,28.4599455 C17.8461163,28.1837875 18.2275967,28.1188011 18.5035785,28.3147139 L22.7180801,31.3119891 C22.9936541,31.5080381 23.058503,31.8905995 22.8630045,32.1667575 C22.743639,32.3352861 22.555074,32.4250681 22.3635181,32.4250681" id="Fill-16" fill="#00758D"></path>
                    <path d="M22.3635181,46.8666213 C22.2482311,46.8666213 22.1318565,46.8340599 22.0283973,46.7660763 C21.7458897,46.580109 21.6671737,46.2 21.8524758,45.91703 L24.5541073,41.7915531 L21.7755272,31.9794278 C21.7046964,31.7297003 21.7987749,31.4622616 22.0099079,31.3119891 L26.2244094,28.3147139 C26.4998474,28.1188011 26.8817356,28.1837875 27.077506,28.4599455 C27.2730045,28.7361035 27.2081556,29.1186649 26.9325816,29.3147139 L23.0706027,32.0613079 L25.8075816,41.7264305 C25.8559804,41.8975477 25.8278384,42.0813351 25.7306329,42.230109 L22.875648,46.589782 C22.7580498,46.7690736 22.5626873,46.866485 22.3635181,46.8666213" id="Fill-18" fill="#00758D"></path>
                    <path d="M22.3645785,46.8666213 C22.1654094,46.8666213 21.9700468,46.7692098 21.8524486,46.589782 L18.9974637,42.230109 C18.9002583,42.0813351 18.8721163,41.8975477 18.9205151,41.7264305 L21.7755,31.6446866 C21.8676752,31.3189373 22.2060589,31.130109 22.5311193,31.2222071 C22.8560438,31.3147139 23.0448807,31.6536785 22.9525695,31.9794278 L20.1739894,41.7915531 L22.8756208,45.91703 C23.060923,46.2 22.9822069,46.580109 22.6996994,46.7660763 C22.5962402,46.8340599 22.4798656,46.866485 22.3645785,46.8666213" id="Fill-20" fill="#00758D"></path>
                    <mask id="mask-4" fill="white">
                        <use xlink:href="#path-3"></use>
                    </mask>
                    <g id="Clip-23"></g>
                    <path d="M29.7734139,39.6457766 L36.4350453,39.6457766 L36.4350453,38.147139 L29.7734139,38.147139 L29.7734139,39.6457766 Z M37.0468278,40.8719346 L29.1616314,40.8719346 C28.8237915,40.8719346 28.5498489,40.5974114 28.5498489,40.2588556 L28.5498489,37.5340599 C28.5498489,37.1955041 28.8237915,36.9209809 29.1616314,36.9209809 L37.0468278,36.9209809 C37.3846677,36.9209809 37.6586103,37.1955041 37.6586103,37.5340599 L37.6586103,40.2588556 C37.6586103,40.5974114 37.3846677,40.8719346 37.0468278,40.8719346 L37.0468278,40.8719346 Z" id="Fill-22" fill="#00758D" mask="url(#mask-4)"></path>
                </g>
            </g>
        </g>
    </g>
</svg>

<svg width="45" height="50" viewBox="0 0 45 50" xmlns="http://www.w3.org/2000/svg" xmlns:xlink="http://www.w3.org/1999/xlink"><title>17816F22-A6BA-4853-87EA-EF26173806C1</title><defs><path id="a" d="M0 0h30.972v28.89H0V0z"/><path id="c" d="M0 50h45V0H0z"/></defs><g fill="none" fill-rule="evenodd"><path d="M27.861 25.994c9.455 1.88 16.46 8.682 16.46 16.785 0 2.453-9.74 6.54-21.753 6.54S.816 45.777.816 42.779c0-8.075 6.955-14.858 16.36-16.766a11.58 11.58 0 0 1-6.232-10.277c0-6.396 5.174-11.58 11.556-11.58 6.382 0 11.556 5.184 11.556 11.58a11.58 11.58 0 0 1-6.195 10.258z" fill="#00758D" opacity=".357"/><path d="M22.432 4.564c-6.035 0-10.944 4.92-10.944 10.967 0 6.048 4.91 10.968 10.944 10.968 6.035 0 10.944-4.92 10.944-10.968 0-6.047-4.91-10.967-10.944-10.967m0 23.16c-6.71 0-12.168-5.47-12.168-12.193S15.723 3.338 22.432 3.338c6.71 0 12.168 5.47 12.168 12.193 0 6.724-5.459 12.194-12.168 12.194" fill="#00758D"/><g transform="translate(6.934)"><mask id="b" fill="#fff"><use xlink:href="#a"/></mask><path d="M7.758 28.89a.608.608 0 0 1-.318-.09C2.78 25.955 0 20.994 0 15.532 0 6.967 6.953 0 15.5 0c8.204 0 15 6.425 15.47 14.627a.613.613 0 1 1-1.221.07c-.434-7.554-6.693-13.47-14.251-13.47-7.872 0-14.275 6.416-14.275 14.304 0 5.031 2.562 9.6 6.853 12.223a.614.614 0 0 1-.32 1.136" fill="#00758D" mask="url(#b)"/></g><path d="M8.065 20.683A1.769 1.769 0 0 1 6.18 19.04l-.264-3.805a1.769 1.769 0 0 1 3.526-.246l.264 3.806a1.77 1.77 0 0 1-1.64 1.89m29.049.568a1.77 1.77 0 0 1-1.768-1.77V14.85a1.77 1.77 0 0 1 1.768-1.771 1.77 1.77 0 0 1 1.767 1.771v4.632a1.77 1.77 0 0 1-1.767 1.771M16.45 27.93c0-.904-.73-1.636-1.631-1.636s-1.632.732-1.632 1.635.73 1.635 1.632 1.635c.9 0 1.631-.732 1.631-1.635" fill="#00758D"/><path d="M22.5 50c-7.272 0-14.422-1.535-20.677-4.44A3.144 3.144 0 0 1 0 42.728v-.017c0-5.974 3.805-11.496 10.18-14.769a.614.614 0 0 1 .558 1.091c-5.958 3.06-9.514 8.173-9.514 13.678v.017c0 .73.438 1.406 1.113 1.72 6.095 2.83 13.068 4.326 20.163 4.326 7.095 0 14.068-1.496 20.163-4.327a1.914 1.914 0 0 0 1.113-1.72v-.016c0-3.36-1.309-6.59-3.786-9.344-2.447-2.72-5.845-4.786-9.827-5.974a.613.613 0 0 1 .349-1.175c4.198 1.253 7.79 3.441 10.387 6.328C43.582 35.53 45 39.044 45 42.711v.017a3.144 3.144 0 0 1-1.823 2.832C36.922 48.465 29.772 50 22.5 50" fill="#00758D"/><path d="M22.364 32.425a.61.61 0 0 1-.354-.113l-4.215-2.997a.614.614 0 0 1-.144-.855.61.61 0 0 1 .853-.145l4.214 2.997a.614.614 0 0 1-.354 1.113" fill="#00758D"/><path d="M22.364 46.867a.614.614 0 0 1-.511-.95l2.701-4.125-2.778-9.813a.614.614 0 0 1 .234-.667l4.214-2.997a.614.614 0 0 1 .708 1l-3.861 2.746 2.737 9.665a.615.615 0 0 1-.077.504l-2.855 4.36a.612.612 0 0 1-.512.277" fill="#00758D"/><path d="M22.365 46.867a.611.611 0 0 1-.513-.277l-2.855-4.36a.615.615 0 0 1-.076-.504l2.855-10.081a.612.612 0 1 1 1.177.334l-2.779 9.813 2.702 4.125a.614.614 0 0 1-.511.95" fill="#00758D"/><mask id="d" fill="#fff"><use xlink:href="#c"/></mask><path d="M29.773 39.646h6.662v-1.499h-6.662v1.499zm7.274 1.226h-7.885a.612.612 0 0 1-.612-.613v-2.725c0-.338.274-.613.612-.613h7.885c.338 0 .612.275.612.613v2.725a.612.612 0 0 1-.612.613z" fill="#00758D" mask="url(#d)"/></g></svg>
